X:1
T:Someone Shall Go
T:Sarah Geraldine Stock (1838-1898)
T:Someone Shall Go
T:Public Domain
T:Public Domain
C:Sarah Geraldine Stock (1838-1898)
Z:Public Domain
%%score ( 1 2 ) ( 3 4 )
L:1/8
M:6/4
K:A
V:1 treble 
V:2 treble 
V:3 bass 
V:4 bass 
V:1
 [Ec]2 [EB]2 [EA]2 [FA]2 [EG]2 [DF]2 | [DE]4 [EF]2 [DE]4 z2 | [CE]2 [CF]2 [CE]2 [EB]2 [Ec]2 [EB]2 | %3
w: 1.~Some- one shall go at the|Mas- ter’s word|O- ver the sea to the|
w: 2.~Some- one shall ga- ther the|sheaves for Him,|Some- one shall bind them with|
w: 3.~Some- one shall tra- vel with|ea- ger feet|O- ver the mount- ain and|
w: 4.~Some- one shall car- ry His|ban- ner high,|Wav- ing it out where the|
 [EA]4 [^DF]2 E4 z2 | [Ec]2 [EB]2 [EA]2 [FA]2 [EG]2 [DF]2 | [DE]4 [DF]2 [CE]2 [EA]2 [EG]2 | %6
w: lands a- far,|ing to those who have nev-|er heard What His won-|
w: joy- ful hand,|one shall toil through the sha-|dows dim, For the morn|
w: through the wild,|ing the news of re- demp-|tion sweet To each wan-|
w: foe holds sway,|in His ser- vice shall live|and die, And with Je-|
 [DF]2 [EG]2 [EA]2 [^Dc]4 [=DB]2 | [CA]6- [CA]4 z2 | [DA]2 [CA]2 [DA]2 [Fd]4 z2 | %9
w: der- ful mer- cies are.|Shall *|it be you— shall|
w: in the heav- ’nly land.|Shall *|it be you— shall|
w: der- ing sin- ful child.|Shall *|it be you— shall|
w: sus shall win the day!|Shall *|it be you— shall|
 [EA]2 [FA]2 [EA]2 [Ec]2 [Ed]2 [Ec]2 | [=Gc]4 [FB]2 [FB]2 [FA]2 [B,F]2 | [B,F]4 [B,E]2 E4 E2 | %12
w: it be I? Who shall haste|to tell what we know|so well? Shall you?|
w: it be I? Who shall bind|the corn for the gold-|en morn? Shall you?|
w: it be I? Who shall sound|the tale o- ver hill|and dale? Shall you?|
w: it be I? Who His Name|shall bear, and His tri-|umph share? Shall you?|
 [EB]6 z4 [DE]2 | [CA]6- [CA]4 |] %14
w: ||
w: ||
w: ||
w: ||
V:2
 x12 | x12 | x12 | x6 E4 x2 | x12 | x12 | x12 | x12 | x12 | x12 | x12 | x6 E4 E2 | x12 | x10 |] %14
w: |||Tell-||||||||Shall I?|||
w: |||Some-||||||||Shall I?|||
w: |||Bring-||||||||Shall I?|||
w: |||Some||||||||Shall I?|||
V:3
 [A,,A,]2 [B,,G,]2 [C,A,]2 [D,A,]2 [E,A,]2 [F,A,]2 | [G,B,]4 [F,A,]2 [G,B,]4 z2 | %2
 A,2 A,2 A,2 [G,B,]2 A,2 [G,B,]2 | [F,C]4 [B,,B,]2 [E,G,]4 z2 | %4
 [A,,A,]2 [B,,G,]2 [C,A,]2 [D,A,]2 [E,A,]2 [F,A,]2 | [G,B,]4 [G,B,]2 [A,C]2 [C,A,]2 [C,A,]2 | %6
 [D,A,]2 [D,B,]2 [C,A,]2 [B,,A,]4 [E,G,]2 | [A,,A,]6- [A,,A,]4 z2 | %8
 [F,A,]2 [=G,A,]2 [F,A,]2 [D,A,]4 z2 | [C,A,]2 [D,A,]2 [C,A,]2 A,2 [G,B,]2 [A,C]2 | %10
 [^A,E]4 [B,^D]2 [B,,D]2 [^D,B,]2 [D,A,]2 | [E,A,]4 [E,G,]2 [G,B,]4 [A,C]2 | [G,D]6 z4 [E,G,]2 | %13
 [A,,A,]6- [A,,A,]4 |] %14
V:4
 x12 | x12 | A,2 A,2 A,2 A,2 x4 | x12 | x12 | x12 | x12 | x12 | x12 | x6 A,2 x4 | x12 | x12 | x12 | %13
 x10 |] %14

